assets/img/components/avatar.svg

<svg width="273" height="144" viewBox="0 0 273 144" fill="none" xmlns="http://www.w3.org/2000/svg">
<rect x="0.131836" y="0.350098" width="272" height="143" rx="8" fill="#EDEDED"/>
<path d="M64.1318 47.3501C77.939 47.3501 89.1318 58.543 89.1318 72.3501C89.1318 86.1572 77.939 97.3501 64.1318 97.3501C50.3247 97.3501 39.1318 86.1572 39.1318 72.3501C39.1318 58.543 50.3247 47.3501 64.1318 47.3501ZM64.1318 52.3032C53.0604 52.3032 44.085 61.2787 44.085 72.3501C44.085 77.0131 45.6774 81.3041 48.3477 84.7095L55.8691 75.7397L61.6318 82.3501L70.3291 72.9858L80.3213 84.1714C82.7456 80.8568 84.1787 76.7712 84.1787 72.3501C84.1787 61.2787 75.2033 52.3032 64.1318 52.3032ZM57.2051 58.7925C58.3527 58.7925 59.3285 59.1942 60.1318 59.9976C60.935 60.8008 61.3368 61.776 61.3369 62.9233C61.3369 64.0709 60.9352 65.0468 60.1318 65.8501C59.3285 66.6534 58.3527 67.0552 57.2051 67.0552C56.0577 67.0551 55.0825 66.6533 54.2793 65.8501C53.476 65.0468 53.0742 64.0709 53.0742 62.9233C53.0743 61.7759 53.4761 60.8008 54.2793 59.9976C55.0825 59.1943 56.0576 58.7926 57.2051 58.7925Z" fill="#457AA5"/>
<circle cx="209.132" cy="72.3501" r="22.5233" stroke="#457AA5" stroke-width="4.95337"/>
<path d="M209.381 80.3501H206.23L198.916 70.3451V80.3501H195.65V65.0091H199.008L206.115 74.6461V65.0091H209.381V80.3501ZM219.03 80.3501H215.764V74.0711L209.876 65.0091H213.602L217.397 71.1501L221.192 65.0091H224.895L219.03 74.0711V80.3501Z" fill="#457AA5"/>
<path d="M120.711 85.1001C122.826 83.4751 125.19 82.1951 127.803 81.2551C130.415 80.3201 133.152 79.8501 136.013 79.8501C138.875 79.8501 141.612 80.3201 144.224 81.2551C146.837 82.1951 149.201 83.4751 151.316 85.1001C152.766 83.3926 153.898 81.4551 154.707 79.2876C155.516 77.1201 155.919 74.8076 155.919 72.3501C155.919 66.8076 153.98 62.0901 150.104 58.1951C146.225 54.2976 141.53 52.3501 136.013 52.3501C130.497 52.3501 125.802 54.2976 121.925 58.1951C118.046 62.0901 116.108 66.8076 116.108 72.3501C116.108 74.8076 116.511 77.1201 117.32 79.2876C118.129 81.4551 119.261 83.3926 120.711 85.1001ZM136.013 74.8501C133.568 74.8501 131.505 74.0076 129.825 72.3201C128.146 70.6301 127.305 68.5576 127.305 66.1001C127.305 63.6426 128.146 61.5701 129.825 59.8826C131.505 58.1951 133.568 57.3501 136.013 57.3501C138.459 57.3501 140.522 58.1951 142.204 59.8826C143.884 61.5701 144.722 63.6426 144.722 66.1001C144.722 68.5576 143.884 70.6301 142.204 72.3201C140.522 74.0076 138.459 74.8501 136.013 74.8501ZM136.013 97.3501C132.572 97.3501 129.338 96.6926 126.31 95.3801C123.282 94.0701 120.649 92.2876 118.41 90.0376C116.17 87.7876 114.396 85.1426 113.092 82.1001C111.784 79.0576 111.132 75.8076 111.132 72.3501C111.132 68.8926 111.784 65.6426 113.092 62.6001C114.396 59.5576 116.17 56.9126 118.41 54.6626C120.649 52.4126 123.282 50.6301 126.31 49.3201C129.338 48.0051 132.572 47.3501 136.013 47.3501C139.455 47.3501 142.689 48.0051 145.717 49.3201C148.745 50.6301 151.378 52.4126 153.617 54.6626C155.857 56.9126 157.631 59.5576 158.934 62.6001C160.241 65.6426 160.895 68.8926 160.895 72.3501C160.895 75.8076 160.241 79.0576 158.934 82.1001C157.631 85.1426 155.857 87.7876 153.617 90.0376C151.378 92.2876 148.745 94.0701 145.717 95.3801C142.689 96.6926 139.455 97.3501 136.013 97.3501Z" fill="#457AA5"/>
</svg>

<svg xmlns="http://www.w3.org/2000/svg" width="273" height="144" fill="none" viewBox="0 0 273 144"><rect width="272" height="143" x=".132" y=".35" fill="#ededed" rx="8"/><path fill="#457aa5" d="M64.132 47.35c13.807 0 25 11.193 25 25s-11.193 25-25 25-25-11.193-25-25 11.193-25 25-25m0 4.953c-11.072 0-20.047 8.976-20.047 20.047a19.96 19.96 0 0 0 4.263 12.36l7.521-8.97 5.763 6.61 8.697-9.364 9.992 11.185a19.95 19.95 0 0 0 3.858-11.82c0-11.072-8.976-20.048-20.047-20.048m-6.927 6.49q1.722 0 2.927 1.205 1.205 1.204 1.205 2.925 0 1.722-1.205 2.927t-2.927 1.205q-1.72 0-2.926-1.205-1.205-1.206-1.205-2.927 0-1.72 1.205-2.925t2.926-1.206"/><circle cx="209.132" cy="72.35" r="22.523" stroke="#457aa5" stroke-width="4.953"/><path fill="#457aa5" d="M209.381 80.35h-3.151l-7.314-10.005V80.35h-3.266V65.01h3.358l7.107 9.636V65.01h3.266zm9.649 0h-3.266v-6.279l-5.888-9.062h3.726l3.795 6.141 3.795-6.14h3.703l-5.865 9.061zM120.711 85.1q3.172-2.436 7.092-3.845a24.2 24.2 0 0 1 8.21-1.405q4.293.001 8.211 1.405 3.92 1.409 7.092 3.845a19.4 19.4 0 0 0 3.391-5.812q1.213-3.252 1.212-6.938 0-8.313-5.815-14.155-5.817-5.845-14.091-5.845t-14.088 5.845q-5.818 5.842-5.817 14.155 0 3.686 1.212 6.938a19.4 19.4 0 0 0 3.391 5.812m15.302-10.25q-3.668.001-6.188-2.53-2.52-2.534-2.52-6.22t2.52-6.217 6.188-2.533 6.191 2.533q2.519 2.531 2.518 6.217.001 3.686-2.518 6.22-2.522 2.531-6.191 2.53m0 22.5q-5.161 0-9.703-1.97-4.542-1.966-7.9-5.342-3.361-3.374-5.318-7.938-1.961-4.563-1.96-9.75-.001-5.185 1.96-9.75 1.957-4.562 5.318-7.937 3.358-3.376 7.9-5.343 4.542-1.971 9.703-1.97 5.162-.001 9.704 1.97 4.542 1.967 7.9 5.343 3.361 3.374 5.317 7.937 1.96 4.565 1.961 9.75 0 5.187-1.961 9.75-1.956 4.564-5.317 7.938-3.358 3.376-7.9 5.342-4.542 1.97-9.704 1.97"/></svg>
